Newaita-dark/mimetypes/22/text-vnd-trolltech-linguist.svg

<svg height="22pt" viewBox="0 0 22 22" width="22pt" xmlns="http://www.w3.org/2000/svg" xmlns:xlink="http://www.w3.org/1999/xlink"><linearGradient id="a"><stop offset="0" stop-opacity=".27451"/><stop offset="1" stop-opacity="0"/></linearGradient><linearGradient id="b" gradientUnits="userSpaceOnUse" x1="11.3699116" x2="11.3699116" xlink:href="#a" y1="19.27333515" y2="20.18292834324"/><linearGradient id="c"><stop offset="0" stop-opacity=".313725"/><stop offset=".222222" stop-opacity=".27451"/><stop offset="1" stop-opacity="0"/></linearGradient><radialGradient id="d" cx="450.90894" cy="189.57936" gradientTransform="matrix(.00000012 -.0537161 -.0966889 -.00000007 34.020641 43.721792)" gradientUnits="userSpaceOnUse" r="21.166656" xlink:href="#c"/><radialGradient id="e" cx="450.90894" cy="189.57936" gradientTransform="matrix(-.00000012 .0537161 .0966889 .00000007 -12.645223 -5.175142)" gradientUnits="userSpaceOnUse" r="21.166656" xlink:href="#c"/><radialGradient id="f" cx="450.90894" cy="189.57936" gradientTransform="matrix(-.00000012 -.0537161 .0966889 -.00000007 -12.645223 43.721792)" gradientUnits="userSpaceOnUse" r="21.166656" xlink:href="#c"/><radialGradient id="g" cx="450.90894" cy="189.57936" gradientTransform="matrix(.00000012 .0537161 -.0966889 .00000007 34.020639 -5.175143)" gradientUnits="userSpaceOnUse" r="21.166656" xlink:href="#c"/><linearGradient id="h" gradientUnits="userSpaceOnUse" x1="10.687706" x2="10.687706" y1="19.27332442218" y2="1.99107551259"><stop offset="0" stop-color="#616161"/><stop offset="1" stop-color="#757575"/></linearGradient><linearGradient id="i" gradientTransform="matrix(.0205522 0 0 .0752024 10.341666 -11.361824)" gradientUnits="userSpaceOnUse" x1="249.18942" x2="249.18942" xlink:href="#a" y1="233.5" y2="254.66669"/><linearGradient id="j"><stop offset="0" stop-color="#424242"/><stop offset="1" stop-color="#616161"/></linearGradient><linearGradient id="k" gradientUnits="userSpaceOnUse" x1="14.55348851351" x2="14.55348851351" xlink:href="#j" y1="19.27333515" y2="1.99106705676"/><linearGradient id="l" gradientUnits="userSpaceOnUse" x1="800.00012649104" x2="819.99962862409" xlink:href="#j" y1="1695.11819267241" y2="175.11810090943"/><path d="m5.457031 19.273438h10.460938v.910156h-10.460938zm0 0" fill="url(#b)"/><path d="m15.917969 19.273438h1.820312v-.910157h-1.820312zm0 0" fill="url(#d)"/><path d="m5.457031 19.273438h-1.820312v.910156h1.820312zm0 0" fill="url(#e)"/><path d="m5.457031 19.273438h-1.820312v-.910157h1.820312zm0 0" fill="url(#f)"/><path d="m15.917969 19.273438h1.820312v.910156h-1.820312zm0 0" fill="url(#g)"/><path d="m12.746094 1.992188h-8.199219c-.503906 0-.910156.40625-.910156.910156v15.460937c0 .503907.40625.910157.910156.910157h12.28125c.503906 0 .910156-.40625.910156-.910157v-11.382812zm0 0" fill="url(#h)"/><path d="m3.636719 18.011719v.351562c0 .503907.40625.910157.910156.910157h12.28125c.503906 0 .910156-.40625.910156-.910157v-.351562c0 .503906-.40625.910156-.910156.910156h-12.28125c-.503906 0-.910156-.40625-.910156-.910156zm0 0" fill-opacity=".235294"/><path d="m12.734375 6.199219h4.320313l.683593.679687v.910156h-5.003906zm0 0" fill="url(#i)"/><path d="m4.546875 1.992188c-.503906 0-.910156.40625-.910156.910156v.339844c0-.503907.40625-.910157.910156-.910157h8.199219l4.992187 4.988281v-.339843l-4.992187-4.988281zm0 0" fill="#fff" fill-opacity=".392157"/><path d="m17.738281 6.980469-4.992187-4.988281v4.078124c0 .503907.40625.910157.910156.910157zm0 0" fill="url(#k)"/><path d="m12.746094 5.855469v.214843c0 .503907.40625.910157.910156.910157h4.082031l-.214843-.214844h-3.867188c-.503906 0-.910156-.40625-.910156-.910156zm0 0" fill-opacity=".235294"/><path d="m12.746094 1.992188v.339843l4.648437 4.648438h.34375zm0 0" fill="#fff" fill-opacity=".392157"/><path d="m12.746094 1.925781c-.035156 0-.0625.03125-.0625.066407v4.078124c0 .539063.433594.972657.972656.972657h4.082031c.023438 0 .046875-.015625.058594-.039063.007813-.023437.003906-.050781-.015625-.070312l-4.988281-4.988282c-.011719-.011718-.027344-.019531-.046875-.019531zm.066406.222657 4.769531 4.765624h-3.925781c-.46875 0-.84375-.375-.84375-.84375zm0 0" fill="#212121"/><path d="m4.546875 1.925781c-.539063 0-.972656.4375-.972656.976563v15.460937c0 .539063.433593.972657.972656.972657h12.28125c.539063 0 .972656-.433594.972656-.972657v-11.382812c0-.015625-.007812-.035157-.019531-.046875l-4.988281-4.988282c-.011719-.011718-.027344-.019531-.046875-.019531zm0 .128907h8.175781l4.949219 4.953124v11.355469c0 .46875-.375.84375-.84375.84375h-12.28125c-.46875 0-.84375-.375-.84375-.84375v-15.460937c0-.472656.375-.847656.84375-.847656zm0 0" fill="#212121"/><path d="m774.385616 706.360615c-13.055303.343561-24.049243 8.589015-30.920455 18.552273 6.527651 24.392803 1.717803 49.816288.34356 74.209092-37.791667 1.374242-75.583334 1.030682-113.03144-.343561-29.202652 8.589015-38.822349 42.601516-4.122728 55.656819 37.791667-1.717803 75.583335-3.435606 113.375002-5.84053-2.061364 35.043182-2.404924 69.742804-1.717803 104.785986-27.82841 12.368182-53.939016 29.202652-75.583335 50.50341-46.380682 45.00644-66.307197 117.841289-40.883712 178.651517 20.270076 46.037122 82.454546 56.687501 124.368941 35.386743 14.773106-1.030682 37.791667-30.576894 45.693561-18.208713 27.141288 46.037122 93.104925 2.748485 47.754925-53.595455 44.319319-50.159849 72.147728-112.000759 93.448486-174.87235 15.803788 3.092045 31.951137 6.527651 46.724243 12.024621v-48.785607c-2.061364-.687121-4.466288-1.374242-6.527652-2.061363-16.490909-2.748485-31.264015-5.15341-20.270076-23.018561 8.932576-12.711743 18.552273-16.147349 14.429546-27.141289-17.865152-6.184091-37.104546-8.245454-55.656819-12.711742-27.141288-5.49697-9.963258 36.073864-21.987879 51.534091-33.66894 2.061364-66.994319 5.49697-99.632577 14.429546 0-30.233334 1.717803-60.466667 3.779167-90.35644 62.528031-5.49697 125.056062-12.368182 186.896972-23.705683 20.613636-3.779166 20.613636-51.534091-15.460228-51.534091-49.472728 12.024621-99.632577 19.926515-150.479547 25.079924-24.736364 7.901894-12.711743-43.288636-3.435606-66.650758-12.711743-16.490909-25.423485-22.33144-37.104546-21.987879zm285.498867 208.884851c-21.987879 0-39.853031 18.208712-39.853031 41.227273v298.554171h60.123107v-113.375002h139.829168v113.375002h60.123107v-298.554171c0-23.018561-17.865151-41.227273-40.196591-41.227273zm-183.117805 52.221213c-14.429546 44.662879-31.607576 88.982198-59.435986 127.117426-12.711742-35.730304-22.675-72.83485-25.423485-110.970077 27.828409-7.558334 56.000379-14.429546 84.859471-16.147349zm223.314396 9.619697h99.976138c10.99394 0 19.926515 8.932576 19.926515 20.613637v82.110985h-139.829168v-82.110985c0-11.681061 8.932576-20.613637 19.926515-20.613637zm-358.333716 27.828409c2.404924 24.049243 5.84053 48.442046 11.3375 72.491289-1.374242 24.736364 32.294697 59.092425 5.84053 74.552653-22.675 17.865151-58.405303 32.981818-84.51591 14.085985-15.460227-20.270076-12.368182-49.129168-6.871212-72.83485 8.589015-39.853031 40.196591-69.055682 74.209092-88.295077zm238.087503 170.062503c-23.362122 10.650378-49.472728 16.834469-73.865531 21.987879-18.552273-.687122-31.264016 80.393182 68.712122 45.00644 1.717803-.687122 3.435606-1.374243 5.153409-2.061364zm0 0" fill="url(#l)" stroke="#212121" stroke-width="11.338583" transform="scale(.0113699)"/></svg>

<?xml version="1.0" encoding="UTF-8"?>
<svg xmlns="http://www.w3.org/2000/svg" xmlns:xlink="http://www.w3.org/1999/xlink" width="22pt" height="22pt" viewBox="0 0 22 22" version="1.1">
<defs>
<linearGradient id="linear0" gradientUnits="userSpaceOnUse" x1="254" y1="233.5" x2="254" y2="254.66667" gradientTransform="matrix(0.0429729,0,0,0.0429729,0.454795,9.239163)">
<stop offset="0" style="stop-color:rgb(0%,0%,0%);stop-opacity:0.27451;"/>
<stop offset="1" style="stop-color:rgb(0%,0%,0%);stop-opacity:0;"/>
</linearGradient>
<radialGradient id="radial0" gradientUnits="userSpaceOnUse" cx="450.90894" cy="189.57936" fx="450.90894" fy="189.57936" r="21.166656" gradientTransform="matrix(0.000000119742,-0.0537161,-0.0966889,-0.0000000698078,34.020641,43.721792)">
<stop offset="0" style="stop-color:rgb(0%,0%,0%);stop-opacity:0.313725;"/>
<stop offset="0.222222" style="stop-color:rgb(0%,0%,0%);stop-opacity:0.27451;"/>
<stop offset="1" style="stop-color:rgb(0%,0%,0%);stop-opacity:0;"/>
</radialGradient>
<radialGradient id="radial1" gradientUnits="userSpaceOnUse" cx="450.90894" cy="189.57936" fx="450.90894" fy="189.57936" r="21.166656" gradientTransform="matrix(-0.000000119742,0.0537161,0.0966889,0.0000000698078,-12.645223,-5.175142)">
<stop offset="0" style="stop-color:rgb(0%,0%,0%);stop-opacity:0.313725;"/>
<stop offset="0.222222" style="stop-color:rgb(0%,0%,0%);stop-opacity:0.27451;"/>
<stop offset="1" style="stop-color:rgb(0%,0%,0%);stop-opacity:0;"/>
</radialGradient>
<radialGradient id="radial2" gradientUnits="userSpaceOnUse" cx="450.90894" cy="189.57936" fx="450.90894" fy="189.57936" r="21.166656" gradientTransform="matrix(-0.000000119742,-0.0537161,0.0966889,-0.0000000698078,-12.645223,43.721792)">
<stop offset="0" style="stop-color:rgb(0%,0%,0%);stop-opacity:0.313725;"/>
<stop offset="0.222222" style="stop-color:rgb(0%,0%,0%);stop-opacity:0.27451;"/>
<stop offset="1" style="stop-color:rgb(0%,0%,0%);stop-opacity:0;"/>
</radialGradient>
<radialGradient id="radial3" gradientUnits="userSpaceOnUse" cx="450.90894" cy="189.57936" fx="450.90894" fy="189.57936" r="21.166656" gradientTransform="matrix(0.000000119742,0.0537161,-0.0966889,0.0000000698078,34.020639,-5.175143)">
<stop offset="0" style="stop-color:rgb(0%,0%,0%);stop-opacity:0.313725;"/>
<stop offset="0.222222" style="stop-color:rgb(0%,0%,0%);stop-opacity:0.27451;"/>
<stop offset="1" style="stop-color:rgb(0%,0%,0%);stop-opacity:0;"/>
</radialGradient>
<linearGradient id="linear1" gradientUnits="userSpaceOnUse" x1="940" y1="1695.1182" x2="940" y2="175.11812" gradientTransform="matrix(0.0113699,0,0,0.0113699,0,0)">
<stop offset="0" style="stop-color:rgb(38.039216%,38.039216%,38.039216%);stop-opacity:1;"/>
<stop offset="1" style="stop-color:rgb(45.882353%,45.882353%,45.882353%);stop-opacity:1;"/>
</linearGradient>
<linearGradient id="linear2" gradientUnits="userSpaceOnUse" x1="249.18942" y1="233.5" x2="249.18942" y2="254.66669" gradientTransform="matrix(0.0205522,0,0,0.0752024,10.341666,-11.361824)">
<stop offset="0" style="stop-color:rgb(0%,0%,0%);stop-opacity:0.27451;"/>
<stop offset="1" style="stop-color:rgb(0%,0%,0%);stop-opacity:0;"/>
</linearGradient>
<linearGradient id="linear3" gradientUnits="userSpaceOnUse" x1="338.66666" y1="233.5" x2="338.66666" y2="-168.66667" gradientTransform="matrix(0.0429729,0,0,0.0429729,0,9.239163)">
<stop offset="0" style="stop-color:rgb(25.882353%,25.882353%,25.882353%);stop-opacity:1;"/>
<stop offset="1" style="stop-color:rgb(38.039216%,38.039216%,38.039216%);stop-opacity:1;"/>
</linearGradient>
<linearGradient id="linear4" gradientUnits="userSpaceOnUse" x1="350.80048" y1="198.31967" x2="357.47583" y2="-309.01959" gradientTransform="matrix(2.996023,0,0,2.996023,-251.00618,1100.9479)">
<stop offset="0" style="stop-color:rgb(25.882353%,25.882353%,25.882353%);stop-opacity:1;"/>
<stop offset="1" style="stop-color:rgb(38.039216%,38.039216%,38.039216%);stop-opacity:1;"/>
</linearGradient>
</defs>
<g id="surface1">
<path style=" stroke:none;fill-rule:nonzero;fill:url(#linear0);" d="M 5.457031 19.273438 L 15.917969 19.273438 L 15.917969 20.183594 L 5.457031 20.183594 Z M 5.457031 19.273438 "/>
<path style=" stroke:none;fill-rule:nonzero;fill:url(#radial0);" d="M 15.917969 19.273438 L 17.738281 19.273438 L 17.738281 18.363281 L 15.917969 18.363281 Z M 15.917969 19.273438 "/>
<path style=" stroke:none;fill-rule:nonzero;fill:url(#radial1);" d="M 5.457031 19.273438 L 3.636719 19.273438 L 3.636719 20.183594 L 5.457031 20.183594 Z M 5.457031 19.273438 "/>
<path style=" stroke:none;fill-rule:nonzero;fill:url(#radial2);" d="M 5.457031 19.273438 L 3.636719 19.273438 L 3.636719 18.363281 L 5.457031 18.363281 Z M 5.457031 19.273438 "/>
<path style=" stroke:none;fill-rule:nonzero;fill:url(#radial3);" d="M 15.917969 19.273438 L 17.738281 19.273438 L 17.738281 20.183594 L 15.917969 20.183594 Z M 15.917969 19.273438 "/>
<path style=" stroke:none;fill-rule:nonzero;fill:url(#linear1);" d="M 12.746094 1.992188 L 4.546875 1.992188 C 4.042969 1.992188 3.636719 2.398438 3.636719 2.902344 L 3.636719 18.363281 C 3.636719 18.867188 4.042969 19.273438 4.546875 19.273438 L 16.828125 19.273438 C 17.332031 19.273438 17.738281 18.867188 17.738281 18.363281 L 17.738281 6.980469 Z M 12.746094 1.992188 "/>
<path style=" stroke:none;fill-rule:nonzero;fill:rgb(0%,0%,0%);fill-opacity:0.235294;" d="M 3.636719 18.011719 L 3.636719 18.363281 C 3.636719 18.867188 4.042969 19.273438 4.546875 19.273438 L 16.828125 19.273438 C 17.332031 19.273438 17.738281 18.867188 17.738281 18.363281 L 17.738281 18.011719 C 17.738281 18.515625 17.332031 18.921875 16.828125 18.921875 L 4.546875 18.921875 C 4.042969 18.921875 3.636719 18.515625 3.636719 18.011719 Z M 3.636719 18.011719 "/>
<path style=" stroke:none;fill-rule:nonzero;fill:url(#linear2);" d="M 12.734375 6.199219 L 17.054688 6.199219 L 17.738281 6.878906 L 17.738281 7.789062 L 12.734375 7.789062 Z M 12.734375 6.199219 "/>
<path style=" stroke:none;fill-rule:nonzero;fill:rgb(100%,100%,100%);fill-opacity:0.392157;" d="M 4.546875 1.992188 C 4.042969 1.992188 3.636719 2.398438 3.636719 2.902344 L 3.636719 3.242188 C 3.636719 2.738281 4.042969 2.332031 4.546875 2.332031 L 12.746094 2.332031 L 17.738281 7.320312 L 17.738281 6.980469 L 12.746094 1.992188 Z M 4.546875 1.992188 "/>
<path style=" stroke:none;fill-rule:nonzero;fill:url(#linear3);" d="M 17.738281 6.980469 L 12.746094 1.992188 L 12.746094 6.070312 C 12.746094 6.574219 13.152344 6.980469 13.65625 6.980469 Z M 17.738281 6.980469 "/>
<path style=" stroke:none;fill-rule:nonzero;fill:rgb(0%,0%,0%);fill-opacity:0.235294;" d="M 12.746094 5.855469 L 12.746094 6.070312 C 12.746094 6.574219 13.152344 6.980469 13.65625 6.980469 L 17.738281 6.980469 L 17.523438 6.765625 L 13.65625 6.765625 C 13.152344 6.765625 12.746094 6.359375 12.746094 5.855469 Z M 12.746094 5.855469 "/>
<path style=" stroke:none;fill-rule:nonzero;fill:rgb(100%,100%,100%);fill-opacity:0.392157;" d="M 12.746094 1.992188 L 12.746094 2.332031 L 17.394531 6.980469 L 17.738281 6.980469 Z M 12.746094 1.992188 "/>
<path style=" stroke:none;fill-rule:nonzero;fill:rgb(12.941176%,12.941176%,12.941176%);fill-opacity:1;" d="M 12.746094 1.925781 C 12.710938 1.925781 12.683594 1.957031 12.683594 1.992188 L 12.683594 6.070312 C 12.683594 6.609375 13.117188 7.042969 13.65625 7.042969 L 17.738281 7.042969 C 17.761719 7.042969 17.785156 7.027344 17.796875 7.003906 C 17.804688 6.980469 17.800781 6.953125 17.78125 6.933594 L 12.792969 1.945312 C 12.78125 1.933594 12.765625 1.925781 12.746094 1.925781 Z M 12.8125 2.148438 L 17.582031 6.914062 L 13.65625 6.914062 C 13.1875 6.914062 12.8125 6.539062 12.8125 6.070312 Z M 12.8125 2.148438 "/>
<path style=" stroke:none;fill-rule:nonzero;fill:rgb(12.941176%,12.941176%,12.941176%);fill-opacity:1;" d="M 4.546875 1.925781 C 4.007812 1.925781 3.574219 2.363281 3.574219 2.902344 L 3.574219 18.363281 C 3.574219 18.902344 4.007812 19.335938 4.546875 19.335938 L 16.828125 19.335938 C 17.367188 19.335938 17.800781 18.902344 17.800781 18.363281 L 17.800781 6.980469 C 17.800781 6.964844 17.792969 6.945312 17.78125 6.933594 L 12.792969 1.945312 C 12.78125 1.933594 12.765625 1.925781 12.746094 1.925781 Z M 4.546875 2.054688 L 12.722656 2.054688 L 17.671875 7.007812 L 17.671875 18.363281 C 17.671875 18.832031 17.296875 19.207031 16.828125 19.207031 L 4.546875 19.207031 C 4.078125 19.207031 3.703125 18.832031 3.703125 18.363281 L 3.703125 2.902344 C 3.703125 2.429688 4.078125 2.054688 4.546875 2.054688 Z M 4.546875 2.054688 "/>
<path style="fill-rule:nonzero;fill:url(#linear4);stroke-width:11.338583;stroke-linecap:butt;stroke-linejoin:miter;stroke:rgb(12.941176%,12.941176%,12.941176%);stroke-opacity:1;stroke-miterlimit:4;" d="M 774.385616 706.360615 C 761.330313 706.704176 750.336373 714.94963 743.465161 724.912888 C 749.992812 749.305691 745.182964 774.729176 743.808721 799.12198 C 706.017054 800.496222 668.225387 800.152662 630.777281 798.778419 C 601.574629 807.367434 591.954932 841.379935 626.654553 854.435238 C 664.44622 852.717435 702.237888 850.999632 740.029555 848.594708 C 737.968191 883.63789 737.624631 918.337512 738.311752 953.380694 C 710.483342 965.748876 684.372736 982.583346 662.728417 1003.884104 C 616.347735 1048.890544 596.42122 1121.725393 621.844705 1182.535621 C 642.114781 1228.572743 704.299251 1239.223122 746.213646 1217.922364 C 760.986752 1216.891682 784.005313 1187.34547 791.907207 1199.713651 C 819.048495 1245.750773 885.012132 1202.462136 839.662132 1146.118196 C 883.981451 1095.958347 911.80986 1034.117437 933.110618 971.245846 C 948.914406 974.337891 965.061755 977.773497 979.834861 983.270467 L 979.834861 934.48486 C 977.773497 933.797739 975.368573 933.110618 973.307209 932.423497 C 956.8163 929.675012 942.043194 927.270087 953.037133 909.404936 C 961.969709 896.693193 971.589406 893.257587 967.466679 882.263647 C 949.601527 876.079556 930.362133 874.018193 911.80986 869.551905 C 884.668572 864.054935 901.846602 905.625769 889.821981 921.085996 C 856.153041 923.14736 822.827662 926.582966 790.189404 935.515542 C 790.189404 905.282208 791.907207 875.048875 793.968571 845.159102 C 856.496602 839.662132 919.024633 832.79092 980.865543 821.453419 C 1001.479179 817.674253 1001.479179 769.919328 965.405315 769.919328 C 915.932587 781.943949 865.772738 789.845843 814.925768 794.999252 C 790.189404 802.901146 802.214025 751.710616 811.490162 728.348494 C 798.778419 711.857585 786.066677 706.017054 774.385616 706.360615 Z M 1059.884483 915.245466 C 1037.896604 915.245466 1020.031452 933.454178 1020.031452 956.472739 L 1020.031452 1255.02691 L 1080.154559 1255.02691 L 1080.154559 1141.651908 L 1219.983727 1141.651908 L 1219.983727 1255.02691 L 1280.106834 1255.02691 L 1280.106834 956.472739 C 1280.106834 933.454178 1262.241683 915.245466 1239.910243 915.245466 Z M 876.766678 967.466679 C 862.337132 1012.129558 845.159102 1056.448877 817.330692 1094.584105 C 804.61895 1058.853801 794.655692 1021.749255 791.907207 983.614028 C 819.735616 976.055694 847.907586 969.184482 876.766678 967.466679 Z M 1100.081074 977.086376 L 1200.057212 977.086376 C 1211.051152 977.086376 1219.983727 986.018952 1219.983727 997.700013 L 1219.983727 1079.810998 L 1080.154559 1079.810998 L 1080.154559 997.700013 C 1080.154559 986.018952 1089.087135 977.086376 1100.081074 977.086376 Z M 741.747358 1004.914785 C 744.152282 1028.964028 747.587888 1053.356831 753.084858 1077.406074 C 751.710616 1102.142438 785.379555 1136.498499 758.925388 1151.958727 C 736.250388 1169.823878 700.520085 1184.940545 674.409478 1166.044712 C 658.949251 1145.774636 662.041296 1116.915544 667.538266 1093.209862 C 676.127281 1053.356831 707.734857 1024.15418 741.747358 1004.914785 Z M 979.834861 1174.977288 C 956.472739 1185.627666 930.362133 1191.811757 905.96933 1196.965167 C 887.417057 1196.278045 874.705314 1277.358349 974.681452 1241.971607 C 976.399255 1241.284485 978.117058 1240.597364 979.834861 1239.910243 Z M 979.834861 1174.977288 " transform="matrix(0.0113699,0,0,0.0113699,0,0)"/>
</g>
</svg>
